flags/1x1/bh.svg

<?xml version="1.0" encoding="UTF-8" standalone="no"?>
<svg
   xmlns:dc="http://purl.org/dc/elements/1.1/"
   xmlns:cc="http://creativecommons.org/ns#"
   xmlns:rdf="http://www.w3.org/1999/02/22-rdf-syntax-ns#"
   xmlns:svg="http://www.w3.org/2000/svg"
   xmlns="http://www.w3.org/2000/svg"
   xmlns:sodipodi="http://sodipodi.sourceforge.net/DTD/sodipodi-0.dtd"
   xmlns:inkscape="http://www.inkscape.org/namespaces/inkscape"
   height="512"
   width="512"
   inkscape:version="1.0beta1 (32d4812, 2019-09-19)"
   sodipodi:docname="bh.svg"
   version="1.1"
   viewBox="0 0 512 512"
   id="flag-icon-css-bh">
  <metadata
     id="metadata459">
    <rdf:RDF>
      <cc:Work
         rdf:about="">
        <dc:format>image/svg+xml</dc:format>
        <dc:type
           rdf:resource="http://purl.org/dc/dcmitype/StillImage" />
        <dc:title></dc:title>
      </cc:Work>
    </rdf:RDF>
  </metadata>
  <sodipodi:namedview
     showguides="false"
     inkscape:current-layer="flag-icon-css-bh"
     inkscape:window-maximized="0"
     inkscape:window-y="23"
     inkscape:window-x="46"
     inkscape:cy="560"
     inkscape:cx="400"
     inkscape:zoom="0.35"
     showgrid="false"
     id="namedview457"
     inkscape:window-height="907"
     inkscape:window-width="1600"
     inkscape:pageshadow="2"
     inkscape:pageopacity="0"
     guidetolerance="10"
     gridtolerance="10"
     objecttolerance="10"
     borderopacity="1"
     inkscape:document-rotation="0"
     bordercolor="#666666"
     pagecolor="#ffffff" />
  <defs
     id="defs448">
    <clipPath
       id="a">
      <path
         inkscape:connector-curvature="0"
         id="path445"
         d="M 0,0 H 640 V 480 H 0 Z"
         fill-opacity=".7" />
    </clipPath>
  </defs>
  <path
     id="path1077"
     fill="#fff"
     d="M 1.5e-6,0 H 512 V 512 H 1.5e-6"
     inkscape:connector-curvature="0"
     style="opacity:1;stroke-width:4.4066;stop-opacity:1" />
  <path
     id="path1079"
     d="M 512,0 H 102.4 L 185.76991,51.200001 102.4,102.4 185.76991,153.6 102.4,204.8 185.76991,256.00001 102.4,307.20001 185.76991,358.4 102.4,409.6 185.76991,460.8 102.4,512 H 512"
     fill="#ce1126"
     inkscape:connector-curvature="0"
     style="opacity:1;stroke-width:4.54103;stop-opacity:1" />
</svg>

<svg xmlns="http://www.w3.org/2000/svg" id="flag-icon-css-bh" version="1.1" viewBox="0 0 512 512">
  <defs id="defs448">
    <clipPath id="a">
      <path id="path445" fill-opacity=".7" d="M0 0h640v480H0z"/>
    </clipPath>
  </defs>
  <path id="path1077" fill="#fff" stroke-width="4.4" d="M0 0h512v512H0" opacity="1" stop-opacity="1"/>
  <path id="path1079" fill="#ce1126" stroke-width="4.5" d="M512 0H102.4l83.4 51.2-83.4 51.2 83.4 51.2-83.4 51.2 83.4 51.2-83.4 51.2 83.4 51.2-83.4 51.2 83.4 51.2-83.4 51.2H512" opacity="1" stop-opacity="1"/>
</svg>
